X: 5
T: Marche des Marchands des Fruits
I: RJ R-161
M: C
R: march
K: C
g/ ga |\
"C"g>e ef e>c cc | dc "C#dim"Bc "Dm"f>f fg |\
"Dm"f>d de d>g ga | "G7"ba gf "C"e> ||
g "G7"ga |\
"C"g>e ef e>c cc | dc "C7"Bc "F"a2 f>a |\
"F"a2 "Dm"f>a "C"g2 "Am"e>g | "Dm7"ag "G7"fd "C"c |]
|: G "(G7)"ce |\
"C"g2 g>a g/e/c/e/ ga | g2 e>e ee "C#dim"fe |\
"Dm7"d2 d>d "G"df ed | "C"c/G/c/e/ "G7"ag "C"c |]
% text 04/30/05

